assets/Piñata/Flat/piñata_flat.svg

<svg width="32" height="32" viewBox="0 0 32 32" fill="none" xmlns="http://www.w3.org/2000/svg">
<path d="M25 13.9657C23.369 13.9657 22.3538 15.0363 22.0501 15.5716C21.7494 16.0841 22.6173 17.4099 24.9476 17.4099C27.2779 17.4099 27.7973 16.8905 27.934 16.3165C28.0706 15.7424 27.0388 13.9657 25 13.9657Z" fill="#FF6723"/>
<path d="M28.4302 19C28.4302 17.3316 26.9346 16.526 25.8861 16.526C24.752 16.526 23.9433 17.2151 23.6807 17.5596C24.039 18.6782 24.844 21.1951 25.197 22.3137C25.6383 23.712 26.1541 24.0103 26.6264 24.3024C27.0987 24.5945 27.3846 24.3645 27.3846 23.9544V23.2894C27.3846 21.5804 28.4302 21.3753 28.4302 19Z" fill="#00A6ED"/>
<path d="M10.1 20.911C9.49249 20.911 9 21.4035 9 22.011V28.8244C9 29.432 9.49249 29.9244 10.1 29.9244H12.9C13.5075 29.9244 14 29.432 14 28.8244V22.011C14 21.4035 13.5075 20.911 12.9 20.911H10.1Z" fill="#433B6B"/>
<path d="M19.5981 21.8817C18.9906 21.8817 18.4981 22.3741 18.4981 22.9817V28.8244C18.4981 29.432 18.9906 29.9244 19.5981 29.9244H22.3981C23.0056 29.9244 23.4981 29.432 23.4981 28.8244V22.9817C23.4981 22.3741 23.0056 21.8817 22.3981 21.8817H19.5981Z" fill="#433B6B"/>
<path d="M7.34603 26.7699C7.43479 26.6251 7.48439 26.4727 7.52375 26.2939H11.4844C11.5246 26.3256 11.6392 26.4183 11.7763 26.5351C11.9477 26.6811 12 26.827 12 27.1254V28.7693C12 29.3469 11.6684 29.9244 10.9448 29.9244H8.30444C7.65069 29.9244 7.23178 29.2834 7.23178 28.6423V27.284C7.23178 27.0873 7.22543 26.9667 7.34603 26.7699Z" fill="#8D65C5"/>
<path d="M25.41 27.2899C25.41 27.0135 25.3793 26.996 25.2477 26.8731L24.8133 26.2502H21.3651C21.3651 26.6889 20.9527 27.0442 20.7509 27.0442C20.5491 27.0442 20.5535 27.1758 20.5535 27.4654V28.6674C20.5535 29.4395 20.9966 29.9397 21.8433 29.9397H24.2167C25.2213 29.9397 25.41 29.1675 25.41 28.7639V27.2899Z" fill="#8D65C5"/>
<path d="M10 3.08766C10 2.53538 10.4477 2.08766 11 2.08766H11.5709C12.1232 2.08766 12.5709 2.53538 12.5709 3.08766V5.06575C12.5709 5.61803 12.1232 6.06575 11.5709 6.06575H11C10.4477 6.06575 10 5.61803 10 5.06575V3.08766Z" fill="#608842"/>
<path d="M7.3397 22.7633L7.59051 21.4284L9 21.1786H24.2324C24.4844 21.548 25.0185 22.333 25.1386 22.5177C25.2887 22.7486 25.3695 22.9391 25.3695 23.2507V25.3806C25.3695 25.9071 25.5242 26.315 25.6016 26.4531C25.7712 26.7211 25.7192 26.8516 25.4727 26.9492C25.3274 27.0067 25.0977 27.0859 24.8516 27.0859C24.1875 27.0859 24.0547 26.6992 23.9453 26.582C23.8359 26.4648 23.7148 26.5 23.6562 26.582C23.4141 26.9297 23.1406 27.053 22.8008 27.053C22.4609 27.053 22.207 26.9336 21.957 26.6184C21.7969 26.4297 21.734 26.4384 21.5959 26.6184C21.2841 27.0247 20.9818 27.053 20.7976 27.053C20.6134 27.053 20.5331 26.968 20.5331 26.7271V24.9416C20.5331 24.1056 20.2214 23.8477 19.3617 23.8477H13C12.0469 23.8477 12 24.5078 12 24.9609V26.4258C12 26.5625 12 26.7109 11.875 26.6016C11.75 26.4922 11.6992 26.4844 11.5156 26.6484C11.332 26.8125 11.1094 27.0664 10.6523 27.0664C10.1953 27.0664 10.0078 26.793 9.87891 26.6484L9.87387 26.6428C9.74783 26.5014 9.66557 26.4091 9.48438 26.625C9.30078 26.8438 9.11328 27.0664 8.64844 27.0664C8.18359 27.0664 7.95312 26.7773 7.8125 26.582C7.67188 26.3867 7.5625 26.4688 7.47656 26.625C7.39062 26.7813 7.28906 26.8477 7.16797 26.6914C7.04688 26.5352 7 26.2617 7 26C7 25.5708 7.22643 25.231 7.22643 24.341V23.3378C7.22643 22.9883 7.30194 22.8092 7.3397 22.7633Z" fill="#00A6ED"/>
<path d="M7.22492 19.417C7.22492 19.1157 7.22492 18.948 7.31841 18.7417C7.70831 17.8817 7.82742 17.6026 8.19619 17.112H24.0602C24.1521 17.2309 24.432 17.5992 24.8164 18.1211C25.2969 18.7734 25.3711 19.0352 25.3945 19.6055C25.418 20.1758 25.3711 21.4141 25.3711 21.8281C25.3711 22.2422 25.5 22.4688 25.5938 22.5977C25.6875 22.7266 25.7266 22.8242 25.5938 22.8867C25.4609 22.9492 25.293 23.0273 24.8008 23.0273C24.3086 23.0273 24.0391 22.6445 23.9336 22.5313C23.8281 22.418 23.707 22.4531 23.6445 22.5313C23.4141 22.8203 23.1484 23.0273 22.7461 23.0273C22.3438 23.0273 22.0664 22.7617 21.8984 22.5117C21.8125 22.3945 21.7327 22.4001 21.6484 22.5117C21.5039 22.7031 21.2578 23.0273 20.8359 23.0273C20.4141 23.0273 20.1055 22.8008 19.9336 22.582C19.8008 22.4336 19.7284 22.4197 19.5781 22.582L19.5701 22.5907C19.377 22.7993 19.166 23.0273 18.7383 23.0273C18.3047 23.0273 18.1211 22.793 17.9219 22.582C17.7461 22.3867 17.6883 22.4253 17.5547 22.582C17.3516 22.8203 17.1914 23.0273 16.7148 23.0273C16.2383 23.0273 16.0625 22.8047 15.8711 22.5541C15.7539 22.4063 15.669 22.4118 15.5586 22.5541C15.2461 22.957 15.0117 23 14.6719 23C14.2852 23 14.1688 22.9059 13.8477 22.5541C13.7188 22.4129 13.6583 22.4202 13.5391 22.5541C13.2891 22.8348 13.0742 23 12.6719 23C12.2707 23 12.118 22.8369 11.8925 22.5958L11.8906 22.5938C11.7734 22.4688 11.6759 22.3868 11.5312 22.5541C11.3359 22.7801 11.0898 23 10.6914 23C10.293 23 10.0234 22.7723 9.84788 22.5541C9.76478 22.4606 9.63693 22.4414 9.53105 22.5541C9.37004 22.7255 9.11553 23.0268 8.65327 23.0268C8.191 23.0268 7.96247 22.6892 7.82742 22.5541C7.69238 22.4191 7.5833 22.4399 7.51578 22.5541C7.44826 22.6684 7.44307 22.6892 7.38074 22.7723C7.31841 22.8554 7.31841 22.8294 7.22492 22.7723C7.13143 22.6632 7 22.6216 7 22.2269C7 21.7906 7.22492 21.3959 7.22492 20.8713V19.417Z" fill="#FF6DC6"/>
<path d="M7.21926 15.2947C7.21955 15.3328 7.21986 15.3746 7.21986 15.4212V16.3978C7.21986 17.0007 7.17745 17.1602 7.12098 17.3725C7.10066 17.4489 7.07854 17.5321 7.05591 17.6452C6.97037 18.0729 6.99175 18.4294 7.10581 18.6717C7.21179 18.897 7.30547 18.7836 7.38111 18.6921C7.38687 18.6851 7.39252 18.6783 7.39807 18.6717C7.41107 18.6564 7.42506 18.6357 7.44038 18.6131C7.51745 18.4992 7.62837 18.3353 7.81864 18.5434C8.04675 18.7929 8.23922 19 8.66692 19C9.05724 19 9.31695 18.7325 9.46231 18.5828C9.47623 18.5685 9.4891 18.5553 9.50094 18.5434C9.63638 18.408 9.71902 18.3962 9.84669 18.5434C9.85251 18.5501 9.85857 18.5572 9.86489 18.5645C9.99703 18.7182 10.2394 19 10.6925 19C11.1337 19 11.375 18.7163 11.4966 18.5734C11.5059 18.5625 11.5144 18.5525 11.5223 18.5434C11.634 18.4153 11.7178 18.3922 11.8654 18.5434C11.8831 18.5615 11.9017 18.5818 11.9217 18.6035C12.0689 18.7633 12.2868 19 12.6873 19C13.0952 19 13.3298 18.755 13.4832 18.5948C13.5008 18.5764 13.5174 18.5591 13.5331 18.5434C13.6847 18.3914 13.7684 18.4441 13.8722 18.5434C13.885 18.5557 13.9005 18.5719 13.9188 18.5909C14.048 18.7256 14.3114 19 14.682 19C15.1049 19 15.3842 18.7274 15.5518 18.5434C15.7193 18.3595 15.8071 18.4521 15.8869 18.5434C15.8892 18.5461 15.8918 18.549 15.8945 18.5522C15.9846 18.6559 16.2836 19 16.7367 19C17.1498 19 17.3692 18.7614 17.5165 18.6011C17.5356 18.5804 17.5535 18.5609 17.5705 18.5434C17.7181 18.3914 17.774 18.4042 17.9176 18.5434C17.9398 18.5649 17.9634 18.5907 17.9892 18.6189C18.1307 18.7731 18.3386 19 18.7434 19C19.2222 19 19.4935 18.6467 19.5852 18.5191C19.677 18.3914 19.7648 18.3236 19.9164 18.5191C20.068 18.7146 20.3193 19 20.7941 19C21.2055 19 21.4491 18.7078 21.5639 18.5701C21.5816 18.5489 21.5962 18.5313 21.6079 18.5191C21.6957 18.4273 21.8154 18.3515 21.9471 18.5191C22.0787 18.6866 22.342 19 22.7769 19C23.1572 19 23.4246 18.7206 23.5658 18.5732C23.586 18.552 23.6037 18.5336 23.6187 18.5191C23.7384 18.4034 23.8581 18.4074 23.9698 18.543C23.9821 18.558 23.9952 18.5757 24.0097 18.5952C24.1261 18.7521 24.3321 19.0297 24.9672 19.0297C25.3634 19.0297 25.5683 18.8939 25.5895 18.7584C25.6015 18.682 25.527 18.5988 25.4316 18.4923C25.3913 18.4473 25.3474 18.3982 25.3047 18.3438C25.171 18.1733 25.0584 17.9865 24.9388 17.7878C24.8362 17.6175 24.7284 17.4386 24.5976 17.2539C24.5236 17.1494 24.4444 17.0441 24.3586 16.9396C24.81 16.7037 25.3364 16.526 25.8861 16.526C26.8487 16.526 28.1881 17.205 28.4011 18.6073C28.4953 18.2669 28.5106 17.8695 28.5106 17.4445C28.5106 16.179 27.3008 15.0391 25.8984 15.0391C24.9825 15.0391 24.0967 15.432 23.6303 16.2411C22.9766 15.759 22.0481 15.4022 20.6374 15.4022H17.6743C16.8286 15.4022 16.4175 15.1634 16.0175 14.931C15.974 14.9057 15.9307 14.8805 15.8869 14.8557C15.8161 14.8112 15.7593 14.7709 15.7109 14.7367C15.5307 14.609 15.4685 14.5649 15.2359 14.6931C14.9408 14.8557 14.3749 14.7218 14.3749 14C13.7969 14.0006 9.94749 14.0002 8.09505 14C7.6495 14 7.53442 14.2433 7.34817 14.6513C7.2166 14.9395 7.21719 15.0185 7.21926 15.2947Z" fill="#F8312F"/>
<path d="M4.62137 10.7396V9.72369L4.88679 9.83984H13.3359C13.6002 10.1068 14.1633 10.6758 14.3008 10.8164C14.4726 10.9922 14.5078 10.9883 14.5078 11.2656V12C14.5078 13.75 15.3789 14.1641 15.5625 14.2969C15.7461 14.4297 15.6875 14.4967 15.5625 14.6094C15.4375 14.7221 15.1836 14.9726 14.7422 14.9726C14.3008 14.9726 14.1172 14.7344 13.8828 14.4967C13.7539 14.3594 13.652 14.3586 13.5312 14.4967C13.307 14.7529 13.1011 14.9726 12.6938 14.9726C12.2882 14.9726 12.0823 14.7457 11.8591 14.4997L11.8563 14.4967C11.7419 14.3731 11.6186 14.3795 11.5223 14.4967C11.3118 14.7529 11.0555 14.9497 10.6574 14.9497C10.2592 14.9497 10.0076 14.6523 9.88857 14.5424C9.76959 14.4326 9.71468 14.2679 9.52248 14.4967C9.33028 14.7255 9.0191 14.9726 8.66673 14.9726C8.31436 14.9726 8.02606 14.7438 7.83386 14.5424C7.64166 14.3411 7.52268 14.428 7.45861 14.4967C7.39455 14.5653 7.26641 14.9085 7.08794 14.6065C6.90947 14.3045 7.10624 13.2565 7.15201 12.7486C7.19777 12.2406 7.17031 11.8242 6.28711 11.6869C5.4039 11.5496 5.02865 11.2476 4.88679 11.1606C4.74493 11.0737 4.68086 10.9959 4.75865 10.9593C4.83645 10.9227 4.62137 10.8952 4.62137 10.7396Z" fill="#FF8101"/>
<path d="M9.64627 5.71115H13.2695C13.5417 5.96759 14.1266 6.52578 14.2891 6.70703C14.4922 6.93359 14.5 7.01923 14.5 7.24494V9.82812C14.5 10.2891 14.5781 10.5703 14.6367 10.6758L14.6377 10.6776C14.6965 10.7834 14.7995 10.9687 14.5781 10.9687C14.3555 10.9687 14.0273 10.6992 13.8945 10.5234C13.7617 10.3477 13.6094 10.3828 13.5039 10.5234C13.3984 10.6641 13.2422 10.9492 12.7227 10.9492C12.2031 10.9492 12.043 10.7109 11.9023 10.5469C11.7617 10.3828 11.6211 10.3711 11.4844 10.5234C10.9336 11.0898 10.2891 10.9922 9.85547 10.4844C9.73633 10.3652 9.65625 10.3398 9.52735 10.4612C9.39844 10.5825 9.16016 10.9502 8.66797 10.9502C8.17578 10.9502 7.91797 10.5625 7.83203 10.4612C7.7461 10.3599 7.67578 10.2266 7.51563 10.4612C7.35547 10.6958 7.03906 10.9502 6.63051 10.9502C6.10938 10.9502 5.96045 10.6287 5.81997 10.4612C5.70224 10.3208 5.60262 10.3253 5.49847 10.4612C5.21773 10.8234 4.94151 10.914 4.66529 11C4.38907 11.086 4.29398 11.0046 4.20342 10.7827C4.00418 10.2393 3.61023 9.93592 3.61023 8.70879C3.61023 7.12394 4.66076 6.91564 5.09094 6.91564H7.12408C7.77161 6.91564 8.05688 6.78885 8.5097 6.52622C8.96252 6.26359 9.25685 5.71115 9.64627 5.71115Z" fill="#FCB100"/>
<path d="M8.06646 6.76934C7.93599 6.71561 7.84376 6.5664 8.00001 6.50839C8.12793 6.43017 8.19434 6.32483 8.27092 6.1608C8.35214 5.98684 8.4448 5.74687 8.6344 5.40321C9.00279 4.73549 9.66283 4.50525 10.2691 4.50525H11.4511C11.7581 4.50525 12.0804 4.35943 12.0804 4V3.13145C12.0804 2.35628 12.61 2.08766 13 2.08766H13.6461C14.1066 2.08766 14.4903 2.47141 14.4903 3.13145V5.51833C14.4903 6.12464 14.5441 6.31652 14.6438 6.50839C14.7436 6.70026 14.9508 6.95353 14.6438 6.95353C14.3368 6.95353 14.0404 6.61471 13.8945 6.47656C13.7487 6.33841 13.6998 6.33954 13.531 6.50839C13.3621 6.67724 13.0782 6.89981 12.7021 6.89981C12.326 6.89981 12.0881 6.70794 11.9346 6.50839C11.7811 6.30884 11.6524 6.28125 11.4511 6.50839C11.2747 6.70745 11.0366 6.89981 10.6452 6.89981C10.3321 6.89981 9.96912 6.56797 9.84376 6.4375C9.69794 6.29168 9.59776 6.33095 9.48829 6.46093C8.8743 7.19004 8.19693 6.82306 8.06646 6.76934Z" fill="#96C34A"/>
<path d="M10.0973 8.17216C10.0973 8.49209 9.8379 8.75146 9.51796 8.75146C9.19802 8.75146 8.93866 8.49209 8.93866 8.17216C8.93866 7.85222 9.19802 7.59286 9.51796 7.59286C9.8379 7.59286 10.0973 7.85222 10.0973 8.17216Z" fill="#433B6B"/>
</svg>

<svg xmlns="http://www.w3.org/2000/svg" width="32" height="32" fill="none"><path fill="#FF6723" d="M25 13.966c-1.631 0-2.646 1.07-2.95 1.606-.3.512.567 1.838 2.898 1.838 2.33 0 2.85-.52 2.986-1.093.137-.575-.895-2.351-2.934-2.351Z"/><path fill="#00A6ED" d="M28.43 19c0-1.668-1.495-2.474-2.544-2.474-1.134 0-1.943.69-2.205 1.034.358 1.118 1.163 3.635 1.516 4.754.441 1.398.957 1.696 1.43 1.988.472.293.758.063.758-.348v-.665c0-1.709 1.045-1.914 1.045-4.289Z"/><path fill="#433B6B" d="M10.1 20.911a1.1 1.1 0 0 0-1.1 1.1v6.813a1.1 1.1 0 0 0 1.1 1.1h2.8a1.1 1.1 0 0 0 1.1-1.1v-6.813a1.1 1.1 0 0 0-1.1-1.1h-2.8ZM19.598 21.882a1.1 1.1 0 0 0-1.1 1.1v5.842a1.1 1.1 0 0 0 1.1 1.1h2.8a1.1 1.1 0 0 0 1.1-1.1v-5.842a1.1 1.1 0 0 0-1.1-1.1h-2.8Z"/><path fill="#8D65C5" d="M7.346 26.77a1.49 1.49 0 0 0 .178-.476h3.96c.04.032.155.124.292.241.172.146.224.292.224.59v1.644c0 .578-.332 1.155-1.055 1.155h-2.64c-.654 0-1.073-.64-1.073-1.282v-1.358c0-.197-.007-.317.114-.514ZM25.41 27.29c0-.276-.03-.294-.162-.417l-.435-.623h-3.448c0 .439-.412.794-.614.794s-.198.132-.198.421v1.202c0 .772.444 1.273 1.29 1.273h2.374c1.004 0 1.193-.773 1.193-1.176V27.29Z"/><path fill="#608842" d="M10 3.088a1 1 0 0 1 1-1h.57a1 1 0 0 1 1 1v1.978a1 1 0 0 1-1 1H11a1 1 0 0 1-1-1V3.088Z"/><path fill="#00A6ED" d="m7.34 22.763.25-1.335 1.41-.25h15.232c.252.37.787 1.155.907 1.34.15.23.23.421.23.733v2.13c0 .526.155.934.233 1.072.17.268.117.399-.13.496a1.73 1.73 0 0 1-.62.137c-.665 0-.797-.387-.907-.504-.11-.117-.23-.082-.289 0-.242.348-.515.471-.855.471-.34 0-.594-.12-.844-.435-.16-.188-.223-.18-.361 0-.312.407-.614.435-.798.435-.185 0-.265-.085-.265-.326v-1.785c0-.836-.312-1.094-1.171-1.094H13c-.953 0-1 .66-1 1.113v1.465c0 .137 0 .285-.125.176-.125-.11-.176-.118-.36.046-.183.165-.406.418-.863.418-.457 0-.644-.273-.773-.418l-.005-.005c-.126-.142-.208-.234-.39-.018-.183.219-.37.441-.836.441-.464 0-.695-.289-.835-.484-.141-.195-.25-.113-.336.043-.086.156-.188.223-.309.066C7.047 26.535 7 26.261 7 26c0-.43.226-.769.226-1.659v-1.003c0-.35.076-.529.114-.575Z"/><path fill="#FF6DC6" d="M7.225 19.417c0-.301 0-.469.093-.675.39-.86.51-1.14.878-1.63H24.06c.092.119.372.487.756 1.01.48.651.555.913.579 1.483.023.57-.024 1.81-.024 2.223 0 .414.129.64.223.77.093.129.133.226 0 .289-.133.062-.301.14-.793.14-.492 0-.762-.383-.867-.496-.106-.113-.227-.078-.29 0-.23.29-.496.496-.898.496s-.68-.265-.848-.515c-.085-.117-.165-.112-.25 0-.144.191-.39.515-.812.515-.422 0-.73-.226-.902-.445-.133-.148-.206-.162-.356 0l-.008.009c-.193.208-.404.436-.832.436-.433 0-.617-.234-.816-.445-.176-.195-.234-.157-.367 0-.203.238-.364.445-.84.445-.477 0-.652-.222-.844-.473-.117-.148-.202-.142-.312 0-.313.403-.547.446-.887.446-.387 0-.503-.094-.824-.446-.13-.141-.19-.134-.309 0-.25.28-.465.446-.867.446-.401 0-.554-.163-.78-.404l-.001-.002c-.118-.125-.215-.207-.36-.04-.195.226-.441.446-.84.446-.398 0-.668-.228-.843-.446-.083-.093-.211-.113-.317 0-.161.172-.415.473-.878.473-.462 0-.69-.338-.826-.473-.135-.135-.244-.114-.311 0-.068.114-.073.135-.135.218-.063.083-.063.057-.156 0-.094-.109-.225-.15-.225-.545 0-.436.225-.831.225-1.356v-1.454Z"/><path fill="#F8312F" d="M7.22 15.295v1.103c0 .603-.043.762-.099.974a4.14 4.14 0 0 0-.065.273c-.086.428-.064.784.05 1.027.106.225.2.112.275.02a2.49 2.49 0 0 1 .017-.02c.013-.016.027-.036.042-.059.077-.114.188-.278.379-.07.228.25.42.457.848.457.39 0 .65-.267.795-.417l.039-.04c.135-.135.218-.147.346 0l.018.021c.132.154.374.436.828.436.44 0 .682-.284.804-.427l.025-.03c.112-.128.196-.15.343 0l.057.06c.147.16.365.397.765.397.408 0 .643-.245.796-.405l.05-.052c.152-.152.235-.099.34 0l.046.048c.129.135.392.409.763.409.423 0 .702-.273.87-.457.167-.183.255-.09.335 0l.008.01c.09.103.389.447.842.447.413 0 .632-.239.78-.399l.053-.058c.148-.152.204-.139.348 0 .022.022.045.048.071.076.142.154.35.381.754.381.48 0 .75-.353.842-.48.092-.129.18-.196.331 0 .152.195.403.48.878.48.412 0 .655-.292.77-.43.018-.021.032-.039.044-.05.088-.093.207-.168.34 0 .13.167.394.48.829.48.38 0 .648-.28.789-.427l.053-.054c.12-.116.24-.112.35.024.013.015.026.033.04.052.117.157.323.435.958.435.396 0 .601-.136.623-.272.012-.076-.063-.16-.158-.266a2.968 2.968 0 0 1-.127-.148 5.416 5.416 0 0 1-.366-.556c-.103-.17-.21-.35-.341-.534a5.534 5.534 0 0 0-.24-.314c.452-.236.978-.414 1.528-.414.963 0 2.302.679 2.515 2.081.094-.34.11-.738.11-1.162 0-1.266-1.21-2.406-2.613-2.406-.915 0-1.801.393-2.268 1.202-.653-.482-1.582-.839-2.993-.839h-2.963c-.845 0-1.256-.239-1.657-.471l-.13-.075c-.07-.045-.128-.085-.176-.12-.18-.127-.242-.171-.475-.043-.295.163-.861.029-.861-.693h-6.28c-.446 0-.56.243-.747.651-.131.289-.13.367-.129.644Z"/><path fill="#FF8101" d="M4.621 10.74V9.724l.266.116h8.449l.965.976c.172.176.207.172.207.45V12c0 1.75.87 2.164 1.055 2.297.183.133.124.2 0 .312-.126.113-.38.364-.82.364-.442 0-.626-.239-.86-.476-.13-.138-.231-.138-.352 0-.224.256-.43.476-.837.476-.406 0-.612-.227-.835-.473l-.003-.003c-.114-.124-.237-.117-.334 0-.21.256-.466.453-.865.453-.398 0-.65-.298-.768-.408-.12-.11-.174-.274-.367-.045-.192.229-.503.476-.855.476-.353 0-.64-.23-.833-.43-.192-.202-.311-.115-.375-.046-.064.068-.193.412-.371.11-.179-.302.018-1.35.064-1.858s.018-.925-.865-1.062-1.258-.44-1.4-.526c-.142-.087-.206-.165-.128-.202.077-.036-.138-.064-.138-.22Z"/><path fill="#FCB100" d="M9.646 5.711h3.623c.273.257.858.815 1.02.996.203.227.211.312.211.538v2.583c0 .461.078.742.137.848v.002c.06.105.162.29-.059.29-.223 0-.55-.269-.683-.445-.133-.175-.286-.14-.391 0-.106.141-.262.426-.781.426-.52 0-.68-.238-.82-.402-.141-.164-.282-.176-.419-.024-.55.567-1.195.47-1.629-.039-.119-.119-.199-.144-.328-.023s-.367.49-.859.49-.75-.389-.836-.49c-.086-.101-.156-.234-.316 0-.16.235-.477.49-.885.49-.522 0-.67-.322-.811-.49-.118-.14-.217-.136-.322 0-.28.362-.556.453-.833.539-.276.086-.371.005-.462-.217-.199-.544-.593-.847-.593-2.074 0-1.585 1.05-1.793 1.48-1.793h2.034c.648 0 .933-.127 1.386-.39.453-.262.747-.815 1.136-.815Z"/><path fill="#96C34A" d="M8.066 6.77c-.13-.054-.222-.204-.066-.262.128-.078.194-.183.27-.347.082-.174.175-.414.364-.758.369-.668 1.029-.898 1.635-.898h1.182c.307 0 .63-.146.63-.505v-.869c0-.775.529-1.043.919-1.043h.646c.46 0 .844.383.844 1.043v2.387c0 .607.054.799.154.99.1.192.307.446 0 .446s-.604-.34-.75-.477c-.145-.139-.194-.137-.363.031-.169.17-.453.392-.829.392a.933.933 0 0 1-.767-.392c-.154-.2-.283-.227-.484 0-.176.2-.414.392-.806.392-.313 0-.676-.332-.801-.463-.146-.145-.246-.106-.356.024-.614.729-1.291.362-1.422.308Z"/><path fill="#433B6B" d="M10.097 8.172a.58.58 0 1 1-1.158 0 .58.58 0 0 1 1.158 0Z"/></svg>
